public/assets/img/moon2.svg

<svg width="24" height="24" viewBox="0 0 24 24" fill="none" xmlns="http://www.w3.org/2000/svg">
<path fill-rule="evenodd" clip-rule="evenodd" d="M13.5234 6.0625C13.5 6.17188 13.4297 6.24219 13.3203 6.24219C13.2109 6.24219 13.1406 6.17188 13.125 6.0625L13.1164 6.01389C12.8986 4.78882 12.8966 4.77773 11.5625 4.50781C11.4531 4.48438 11.3828 4.42188 11.3828 4.30469C11.3828 4.19531 11.4531 4.125 11.5625 4.10938C12.8782 3.87362 12.8835 3.84515 13.1063 2.65474L13.125 2.55469C13.1406 2.44531 13.2109 2.375 13.3203 2.375C13.4297 2.375 13.5 2.44531 13.5234 2.55469L13.5409 2.64932C13.7571 3.82128 13.7611 3.84293 15.0781 4.10938C15.1875 4.125 15.2578 4.19531 15.2578 4.30469C15.2578 4.42188 15.1875 4.48438 15.0703 4.50781C13.7451 4.75581 13.7421 4.77317 13.5287 6.03172L13.5234 6.0625ZM17.7656 15.4062C16.6172 18.0391 14.0859 19.6484 11.0781 19.6484C6.79688 19.6484 3.75781 16.5234 3.75781 12.3906C3.75781 9.32031 5.53906 6.61719 8.1875 5.54688C8.67188 5.35156 9.07031 5.40625 9.28906 5.65625C9.5 5.89844 9.52344 6.25781 9.32031 6.71094C9.0625 7.27344 8.86719 8.19531 8.86719 9.11719C8.86719 12.5 11.0703 14.6172 14.5234 14.6172C15.375 14.6172 16.1094 14.4766 16.6953 14.2266C17.1016 14.0547 17.4766 14.0938 17.6875 14.3047C17.9141 14.5234 17.9844 14.9062 17.7656 15.4062ZM17.0859 11.7188C17.2656 11.7188 17.3906 11.6016 17.4141 11.4141C17.6641 9.35156 17.75 9.29688 19.8516 8.96875C20.0547 8.9375 20.1719 8.82031 20.1719 8.64062C20.1719 8.46875 20.0547 8.35156 19.8906 8.32031L19.7621 8.29492C17.7539 7.89853 17.6589 7.87978 17.4141 5.86719C17.3906 5.6875 17.2656 5.5625 17.0859 5.5625C16.9141 5.5625 16.7891 5.6875 16.7656 5.85938C16.5 7.96094 16.4375 8.02344 14.2891 8.32031C14.125 8.33594 14 8.46875 14 8.64062C14 8.8125 14.125 8.92969 14.2891 8.96875L14.3673 8.98404C16.4465 9.39055 16.4955 9.40014 16.7656 11.4297C16.7891 11.6016 16.9141 11.7188 17.0859 11.7188ZM5.49219 12.3281C5.49219 15.5078 7.8125 17.9062 11.0859 17.9062C12.7812 17.9062 14.3516 17.2266 15.3047 16.0781C15.0625 16.1562 14.6094 16.2188 14.125 16.2188C9.98438 16.2188 7.25781 13.5547 7.25781 9.50781C7.25781 8.94531 7.33594 8.35938 7.46875 7.94531C6.24219 9.00781 5.49219 10.6172 5.49219 12.3281Z" fill="#141029" fill-opacity="0.6"/>
</svg>

<svg width="24" height="24" fill="none" xmlns="http://www.w3.org/2000/svg"><path fill-rule="evenodd" clip-rule="evenodd" d="M13.523 6.063c-.023.109-.093.18-.203.18-.11 0-.18-.071-.195-.18l-.009-.05c-.217-1.224-.22-1.235-1.553-1.505-.11-.024-.18-.086-.18-.203 0-.11.07-.18.18-.196 1.315-.235 1.32-.264 1.543-1.454l.019-.1c.016-.11.086-.18.195-.18.11 0 .18.07.203.18l.018.094c.216 1.172.22 1.194 1.537 1.46.11.016.18.086.18.196 0 .117-.07.18-.188.203-1.325.248-1.328.265-1.541 1.524l-.006.03Zm4.243 9.343c-1.149 2.633-3.68 4.242-6.688 4.242-4.281 0-7.32-3.125-7.32-7.257 0-3.07 1.781-5.774 4.43-6.844.484-.195.882-.14 1.101.11.211.241.234.6.031 1.054-.258.562-.453 1.484-.453 2.406 0 3.383 2.203 5.5 5.656 5.5.852 0 1.586-.14 2.172-.39.407-.172.782-.133.992.078.227.218.297.601.079 1.101Zm-.68-3.687c.18 0 .305-.117.328-.305.25-2.062.336-2.117 2.438-2.445.203-.031.32-.149.32-.328 0-.172-.117-.29-.281-.32l-.129-.026c-2.008-.396-2.103-.415-2.348-2.428-.023-.18-.148-.304-.328-.304-.172 0-.297.125-.32.296-.266 2.102-.328 2.164-2.477 2.461a.316.316 0 0 0-.289.32c0 .172.125.29.29.329l.077.015c2.08.407 2.128.416 2.399 2.446.023.172.148.289.32.289Zm-11.594.61c0 3.179 2.32 5.577 5.594 5.577 1.695 0 3.266-.68 4.219-1.828-.242.078-.696.14-1.18.14-4.14 0-6.867-2.663-6.867-6.71 0-.563.078-1.149.21-1.563-1.226 1.063-1.976 2.672-1.976 4.383Z" fill="#141029" fill-opacity=".6"/></svg>
